src/Eleven/16/symbolic/categories/preferences-system-symbolic.svg

<?xml version="1.0" encoding="UTF-8" standalone="no"?>
<svg
   width="16"
   height="16"
   version="1.1"
   id="svg1"
   sodipodi:docname="preferences-system-symbolic.svg"
   inkscape:version="1.4.2 (ebf0e940d0, 2025-05-08)"
   xmlns:inkscape="http://www.inkscape.org/namespaces/inkscape"
   xmlns:sodipodi="http://sodipodi.sourceforge.net/DTD/sodipodi-0.dtd"
   xmlns="http://www.w3.org/2000/svg"
   xmlns:svg="http://www.w3.org/2000/svg">
  <defs
     id="defs1">
    <style
       id="current-color-scheme"
       type="text/css">
        .ColorScheme-Text { color:#363636; }
     </style>
  </defs>
  <sodipodi:namedview
     id="namedview1"
     pagecolor="#ffffff"
     bordercolor="#000000"
     borderopacity="0.25"
     inkscape:showpageshadow="2"
     inkscape:pageopacity="0.0"
     inkscape:pagecheckerboard="0"
     inkscape:deskcolor="#d1d1d1"
     inkscape:zoom="49.6875"
     inkscape:cx="8"
     inkscape:cy="8"
     inkscape:window-width="1920"
     inkscape:window-height="1010"
     inkscape:window-x="0"
     inkscape:window-y="0"
     inkscape:window-maximized="1"
     inkscape:current-layer="svg1" />
  <path
     id="path1"
     style="fill:currentColor"
     class="ColorScheme-Text"
     d="M 7.5097656 0 C 6.9816756 -1.0422e-05 6.4740625 0.20965437 6.1015625 0.58398438 C 5.7313125 0.95599438 5.5235175 1.4617781 5.5234375 1.9863281 C 5.5155757 2.5340981 5.0808131 2.9638737 4.5332031 2.9648438 C 4.3703431 2.9628178 4.2123556 2.9171294 4.0722656 2.8339844 A 0.50005 0.50005 0 0 0 4.0644531 2.8300781 C 3.1162031 2.2867181 1.8932562 2.6174731 1.3476562 3.5644531 L 0.83203125 4.4121094 A 0.50005 0.50005 0 0 0 0.82617188 4.421875 C 0.28121188 5.367685 0.60719125 6.5898719 1.5507812 7.1386719 A 0.50005 0.50005 0 0 0 1.5527344 7.140625 C 1.8605944 7.318345 2.0488281 7.64457 2.0488281 8 C 2.0488281 8.35554 1.8606444 8.681585 1.5527344 8.859375 C 0.60930438 9.405135 0.28143187 10.626313 0.82617188 11.570312 A 0.50005 0.50005 0 0 0 0.82617188 11.572266 L 1.3144531 12.414062 L 1.3164062 12.416016 C 1.5734963 12.878366 2.0047119 13.220634 2.5136719 13.365234 C 3.0235319 13.510204 3.5709031 13.444733 4.0332031 13.185547 A 0.50005 0.50005 0 0 0 4.0390625 13.181641 C 4.2646525 13.049991 4.5328963 13.014481 4.7851562 13.082031 A 0.50005 0.50005 0 0 0 4.7871094 13.082031 C 5.0394194 13.149535 5.2531325 13.314346 5.3828125 13.541016 A 0.50005 0.50005 0 0 0 5.3867188 13.548828 C 5.4702377 13.689588 5.5158781 13.848119 5.5175781 14.011719 C 5.5201417 15.104219 6.4165856 16 7.5097656 16 L 8.4882812 16 C 9.5793812 16 10.475269 15.106705 10.480469 14.015625 A 0.50005 0.50005 0 0 0 10.480469 14.011719 C 10.479207 13.748499 10.583381 13.496757 10.769531 13.310547 C 10.954601 13.125477 11.205207 13.023348 11.466797 13.023438 C 11.632277 13.02887 11.795533 13.074449 11.939453 13.15625 C 12.884953 13.69933 14.10785 13.372507 14.65625 12.429688 L 15.166016 11.578125 A 0.50005 0.50005 0 0 0 15.169922 11.572266 C 15.435892 11.115816 15.509227 10.57309 15.373047 10.0625 C 15.236887 9.55204 14.903222 9.1149925 14.445312 8.8515625 C 14.217723 8.7206425 14.052065 8.5056931 13.984375 8.2519531 C 13.916715 7.9983231 13.951819 7.7288031 14.083984 7.5019531 A 0.50005 0.50005 0 0 0 14.085938 7.4980469 C 14.171176 7.3492469 14.294449 7.225925 14.443359 7.140625 A 0.50005 0.50005 0 0 0 14.447266 7.1386719 C 15.346426 6.6127019 15.672969 5.4774344 15.224609 4.5527344 A 0.50005 0.50005 0 0 0 15.171875 4.421875 L 14.685547 3.578125 C 14.139927 2.631215 12.91705 2.30043 11.96875 2.84375 A 0.50005 0.50005 0 0 0 11.962891 2.8476562 C 11.737221 2.9806063 11.468504 3.018975 11.214844 2.953125 C 10.961264 2.887285 10.743908 2.7221337 10.611328 2.4960938 A 0.50005 0.50005 0 0 0 10.611328 2.4941406 C 10.53123 2.359162 10.48551 2.2074054 10.480469 2.0507812 L 10.480469 2.0429688 C 10.49387 1.5074347 10.291504 0.98780008 9.9179688 0.60351562 C 9.5426887 0.21748562 9.0266513 -0.00022 8.4882812 0 L 7.5097656 0 z M 7.5097656 1 L 8.4882812 1 C 8.7567213 0.99988687 9.0139719 1.1082213 9.2011719 1.3007812 C 9.3883519 1.4933113 9.4881987 1.7531044 9.4804688 2.0214844 A 0.50005 0.50005 0 0 0 9.4804688 2.0410156 C 9.4840452 2.3792256 9.577964 2.7107131 9.75 3.0019531 C 10.01667 3.4566331 10.452641 3.7874419 10.962891 3.9199219 C 11.470861 4.0517819 12.011844 3.9775746 12.464844 3.7128906 C 12.944974 3.4377906 13.542159 3.598685 13.818359 4.078125 L 14.287109 4.890625 A 0.50005 0.50005 0 0 0 14.304688 4.9257812 C 14.577298 5.4034213 14.418049 5.9976906 13.943359 6.2753906 C 13.643119 6.4482306 13.393613 6.6977169 13.220703 6.9980469 L 13.220703 7 C 12.955553 7.45616 12.881568 7.9998856 13.017578 8.5097656 C 13.153728 9.0201456 13.487283 9.45525 13.945312 9.71875 C 14.172873 9.84968 14.33859 10.066653 14.40625 10.320312 C 14.473553 10.572653 14.437158 10.840306 14.306641 11.066406 L 14.306641 11.068359 L 14.306641 11.070312 L 13.794922 11.921875 A 0.50005 0.50005 0 0 0 13.791016 11.927734 C 13.513226 12.405354 12.91629 12.564923 12.4375 12.289062 A 0.50005 0.50005 0 0 0 12.435547 12.287109 C 12.145947 12.121509 11.819728 12.030384 11.486328 12.021484 A 0.50005 0.50005 0 0 0 11.476562 12.021484 C 10.946742 12.018879 10.4372 12.228896 10.0625 12.603516 C 9.68803 12.978086 9.4779288 13.485855 9.4804688 14.015625 C 9.4757516 14.566045 9.0393013 15 8.4882812 15 L 7.5097656 15 C 6.9554056 15 6.515625 14.562042 6.515625 14.007812 A 0.50005 0.50005 0 0 0 6.515625 14.001953 C 6.5121104 13.664463 6.4192629 13.333679 6.2480469 13.042969 C 5.9859669 12.586399 5.5535519 12.251334 5.0449219 12.115234 C 4.5381519 11.979544 3.9970688 12.052194 3.5429688 12.314453 C 3.3123588 12.443733 3.0413694 12.474633 2.7871094 12.402344 C 2.5328494 12.330102 2.3175931 12.160907 2.1894531 11.929688 A 0.50005 0.50005 0 0 0 2.1855469 11.919922 L 1.6933594 11.072266 C 1.4185494 10.596056 1.5767744 10.001862 2.0527344 9.7265625 C 2.6686244 9.3709525 3.0488281 8.7112 3.0488281 8 C 3.0488281 7.28934 2.6679444 6.6310906 2.0527344 6.2753906 L 2.0527344 6.2734375 C 1.5762544 5.9952775 1.4177694 5.400215 1.6933594 4.921875 L 2.2089844 4.0742188 A 0.50005 0.50005 0 0 0 2.2148438 4.0644531 C 2.4910537 3.5850431 3.0883094 3.4221856 3.5683594 3.6972656 C 3.8585694 3.8677456 4.1887406 3.9613538 4.5253906 3.9648438 A 0.50005 0.50005 0 0 0 4.53125 3.9648438 C 5.61515 3.9649764 6.5078375 3.08373 6.5234375 2 A 0.50005 0.50005 0 0 0 6.5234375 1.9902344 C 6.5221825 1.7277544 6.6253969 1.4770456 6.8105469 1.2910156 C 6.9956569 1.1050156 7.2473556 1 7.5097656 1 z M 8 5 C 6.3491 5 5 6.3491 5 8 C 5 9.6509 6.3491 11 8 11 C 9.6509 11 11 9.6509 11 8 C 11 6.3491 9.6509 5 8 5 z M 8 6 C 9.1105 6 10 6.88951 10 8 C 10 9.11049 9.11049 10 8 10 C 6.88951 10 6 9.11049 6 8 C 6 6.88951 6.88951 6 8 6 z " />
</svg>

<svg width="16" height="16" version="1.1" xmlns="http://www.w3.org/2000/svg">
 <defs>
  <style id="current-color-scheme" type="text/css">.ColorScheme-Text { color:#363636; }</style>
 </defs>
 <path d="m7.5098-8.3933e-5c-0.52809-1.0422e-5 -1.0357 0.20965-1.4082 0.58398-0.37025 0.37201-0.57804 0.87775-0.57812 1.4023-0.00786 0.54777-0.44262 0.97755-0.99023 0.97852-0.16287-0.00203-0.32085-0.047717-0.46094-0.13086a0.50005 0.50005 0 0 0-0.00781-0.00391c-0.94825-0.54336-2.1712-0.2126-2.7168 0.73438l-0.51562 0.84766a0.50005 0.50005 0 0 0-0.005859 0.00977c-0.54496 0.94581-0.21898 2.168 0.72461 2.7168a0.50005 0.50005 0 0 0 0.00195 0.00195c0.30786 0.17772 0.49609 0.50395 0.49609 0.85938 0 0.35554-0.18818 0.68159-0.49609 0.85938-0.94343 0.54576-1.2713 1.7669-0.72656 2.7109a0.50005 0.50005 0 0 0 0 2e-3l0.48828 0.8418s0.00195 2e-3 0.00195 2e-3c0.25709 0.46235 0.68834 0.80462 1.1973 0.94922 0.50986 0.14497 1.0572 0.0795 1.5195-0.17969a0.50005 0.50005 0 0 0 0.00586-0.0039c0.22559-0.13165 0.49383-0.16716 0.74609-0.09961a0.50005 0.50005 0 0 0 0.00195 0c0.25231 0.0675 0.46602 0.23231 0.5957 0.45898a0.50005 0.50005 0 0 0 0.00391 0.0078c0.083519 0.14076 0.12916 0.29929 0.13086 0.46289 0.00256 1.0925 0.89902 1.9883 1.9922 1.9883h0.97852c1.0911 0 1.987-0.89332 1.9922-1.9844a0.50005 0.50005 0 0 0 0-0.0039c-0.0013-0.26322 0.10291-0.51496 0.28906-0.70117 0.18507-0.18507 0.43568-0.2872 0.69727-0.28711 0.16548 0.0054 0.32874 0.05101 0.47266 0.13281 0.9455 0.54308 2.1684 0.21626 2.7168-0.72656l0.50977-0.85156a0.50005 0.50005 0 0 0 0.0039-0.0059c0.26597-0.45645 0.3393-0.99921 0.20312-1.5098-0.13616-0.51046-0.46983-0.94747-0.92774-1.2109-0.22759-0.13092-0.39325-0.34587-0.46094-0.59961-0.06766-0.25363-0.03256-0.52315 0.09961-0.75a0.50005 0.50005 0 0 0 2e-3 -0.00391c0.08524-0.1488 0.20851-0.27212 0.35742-0.35742a0.50005 0.50005 0 0 0 0.0039-0.00195c0.89916-0.52597 1.2257-1.6612 0.77734-2.5859a0.50005 0.50005 0 0 0-0.05273-0.13086l-0.48633-0.84375c-0.54562-0.94691-1.7685-1.2777-2.7168-0.73438a0.50005 0.50005 0 0 0-0.0059 0.00391c-0.22567 0.13295-0.49439 0.17132-0.74805 0.10547-0.25358-0.06584-0.47094-0.23099-0.60352-0.45703a0.50005 0.50005 0 0 0 0-0.00195c-0.08345-0.14063-0.12913-0.29929-0.13086-0.46289v0.019531c0.01552-0.53821-0.1872-1.0612-0.5625-1.4473-0.37528-0.38603-0.89133-0.60374-1.4297-0.60352h-0.97852zm0 1h0.97852c0.26844-1.1316e-4 0.52569 0.10822 0.71289 0.30078 0.18718 0.19253 0.28703 0.45232 0.2793 0.7207a0.50005 0.50005 0 0 0 0 0.019531c0.00358 0.33821 0.097494 0.6697 0.26953 0.96094 0.26667 0.45468 0.70265 0.78549 1.2129 0.91797 0.50797 0.13186 1.049 0.057654 1.502-0.20703 0.48013-0.2751 1.0773-0.11421 1.3535 0.36523l0.46875 0.8125a0.50005 0.50005 0 0 0 0.01758 0.035156c0.27261 0.47764 0.11336 1.0719-0.36133 1.3496-0.30024 0.17284-0.54975 0.42233-0.72266 0.72266v0.00195c-0.26515 0.45616-0.33913 0.99992-0.20312 1.5098 0.13615 0.51038 0.4697 0.9455 0.92773 1.209 0.22756 0.13093 0.39328 0.3479 0.46094 0.60156 0.0673 0.25234 0.03091 0.51999-0.09961 0.74609-6.72e-4 0.0012 6.76e-4 0.0027 0 0.0039l-0.51172 0.85156a0.50005 0.50005 0 0 0-0.0039 0.0059c-0.27779 0.47762-0.87471 0.63719-1.3535 0.36133a0.50005 0.50005 0 0 0-2e-3 -2e-3c-0.2896-0.1656-0.61582-0.25672-0.94922-0.26562a0.50005 0.50005 0 0 0-0.0098 0c-0.52982-0.0026-1.0394 0.20741-1.4141 0.58203-0.37447 0.37457-0.58457 0.88233-0.58203 1.4121-0.00472 0.55042-0.44117 0.98438-0.99219 0.98438h-0.97852c-0.55436 0-0.99414-0.43796-0.99414-0.99219a0.50005 0.50005 0 0 0 0-0.0059c-0.00351-0.33749-0.096364-0.66827-0.26758-0.95898-0.26208-0.45657-0.69447-0.79164-1.2031-0.92774-0.50677-0.13569-1.0479-0.06304-1.502 0.19922-0.23061 0.12928-0.5016 0.16018-0.75586 0.08789-0.25426-0.07224-0.46952-0.24144-0.59766-0.47266a0.50005 0.50005 0 0 0-0.00391-0.0098l-0.49219-0.84766c-0.27481-0.47621-0.11658-1.0704 0.35938-1.3457 0.61589-0.35561 0.99609-1.0154 0.99609-1.7266 0-0.71066-0.38088-1.3689-0.99609-1.7246v-0.00195c-0.47648-0.27816-0.63497-0.87326-0.35938-1.3516l0.51562-0.84766a0.50005 0.50005 0 0 0 0.00586-0.00977c0.27621-0.47941 0.87345-0.64227 1.3535-0.36719 0.29021 0.17048 0.62039 0.26408 0.95703 0.26758a0.50005 0.50005 0 0 0 0.00586 0c1.0839 1.326e-4 1.9766-0.88107 1.9922-1.9648a0.50005 0.50005 0 0 0 0-0.00977c-0.00125-0.26248 0.10196-0.51319 0.28711-0.69922 0.18511-0.186 0.43681-0.29102 0.69922-0.29102zm0.49023 4c-1.6509 0-3 1.3491-3 3s1.3491 3 3 3 3-1.3491 3-3-1.3491-3-3-3zm0 1c1.1105 0 2 0.88951 2 2s-0.88951 2-2 2-2-0.88951-2-2 0.88951-2 2-2z" clip-rule="evenodd" color="#000000" color-rendering="auto" dominant-baseline="auto" fill="#363636" fill-rule="evenodd" image-rendering="auto" shape-rendering="auto" solid-color="#000000" stop-color="#000000" style="font-feature-settings:normal;font-variant-alternates:normal;font-variant-caps:normal;font-variant-east-asian:normal;font-variant-ligatures:normal;font-variant-numeric:normal;font-variant-position:normal;font-variation-settings:normal;inline-size:0;isolation:auto;mix-blend-mode:normal;shape-margin:0;shape-padding:0;text-decoration-color:#000000;text-decoration-line:none;text-decoration-style:solid;text-indent:0;text-orientation:mixed;text-transform:none;white-space:normal"/>
</svg>
